src/svg/uf279-map.svg

<!-- Generated by IcoMoon.io -->
<svg version="1.1" xmlns="http://www.w3.org/2000/svg" width="32" height="32" viewBox="0 0 32 32">
<path d="M9.143 0c0.304 0 0.571 0.268 0.571 0.571v26.286c0 0.214-0.125 0.411-0.304 0.5l-8.571 4.571c-0.089 0.054-0.179 0.071-0.268 0.071-0.304 0-0.571-0.268-0.571-0.571v-26.286c0-0.214 0.125-0.411 0.304-0.5l8.571-4.571c0.089-0.054 0.179-0.071 0.268-0.071zM31.429 0c0.304 0 0.571 0.268 0.571 0.571v26.286c0 0.214-0.125 0.411-0.304 0.5l-8.571 4.571c-0.089 0.054-0.179 0.071-0.268 0.071-0.304 0-0.571-0.268-0.571-0.571v-26.286c0-0.214 0.125-0.411 0.304-0.5l8.571-4.571c0.089-0.054 0.179-0.071 0.268-0.071zM11.429 0c0.089 0 0.179 0.018 0.25 0.054l9.143 4.571c0.196 0.107 0.321 0.304 0.321 0.518v26.286c0 0.304-0.268 0.571-0.571 0.571-0.089 0-0.179-0.018-0.25-0.054l-9.143-4.571c-0.196-0.107-0.321-0.304-0.321-0.518v-26.286c0-0.304 0.268-0.571 0.571-0.571z"></path>
</svg>

<svg xmlns="http://www.w3.org/2000/svg" width="32" height="32"><path d="M9.143 0c.304 0 .571.268.571.571v26.286a.565.565 0 0 1-.304.5L.839 31.928a.5.5 0 0 1-.268.071.587.587 0 0 1-.571-.571V5.142c0-.214.125-.411.304-.5L8.875.071A.5.5 0 0 1 9.143 0zm22.286 0c.304 0 .571.268.571.571v26.286a.565.565 0 0 1-.304.5l-8.571 4.571a.5.5 0 0 1-.268.071.587.587 0 0 1-.571-.571V5.142c0-.214.125-.411.304-.5L31.161.071A.5.5 0 0 1 31.429 0zm-20 0c.089 0 .179.018.25.054l9.143 4.571a.597.597 0 0 1 .321.518v26.286a.587.587 0 0 1-.571.571.566.566 0 0 1-.25-.054l-9.143-4.571a.597.597 0 0 1-.321-.518V.571c0-.304.268-.571.571-.571z"/></svg>
